X: 24067
T: Long Acre, The
R: reel
M: 4/4
K: Gmajor
dcAGA2{c/}AG|EA{c/}ABcd~e2|dcAGAzBc|BAGEAGED|
dcAGA2{c/}AG|EA{c/}ABcdef|{c'/}gea/g/f{c'/}gedB|edBGJA3z|
|:dedcABc2-|czfgagfd|dcABcd{a/}ed|1 cA(3Bcd cAG2:|2 cABcd3z||
K:D
BcdecA{c/}Bz|efgafdez|BcdecA{c/}Bz|ea{c'/}agagfd|
BcdecA{c/}Bz|efgafdez|BcdecA{c/}Bz|GABF2DEz||

